src/icons/main-depricate.svg

<?xml version="1.0" encoding="UTF-8"?>
<svg width="14px" height="13px" viewBox="0 0 14 13" version="1.1" xmlns="http://www.w3.org/2000/svg" xmlns:xlink="http://www.w3.org/1999/xlink">
    <!-- Generator: Sketch 59 (86127) - https://sketch.com -->
    <title>HDL/Icon/Standard/depricate</title>
    <desc>Created with Sketch.</desc>
    <g id="Colors" stroke="none" stroke-width="1" fill="none" fill-rule="evenodd">
        <g id="Main-Icons" transform="translate(-623.000000, -1206.000000)" fill="#4D5969">
            <g id="Depricate" transform="translate(602.000000, 1189.000000)">
                <g id="HDL/Icon/Standard/reorder" transform="translate(21.000000, 17.000000)">
                    <path d="M1.86666667,12.0714286 L5.6,12.0714286 L5.6,10.2142857 L1.86666667,10.2142857 L1.86666667,12.0714286 Z M0.678787879,9.28571429 C0.30409697,9.28571429 0,9.56304762 0,9.9047619 L0,12.3809524 C0,12.7226667 0.30409697,13 0.678787879,13 L6.78787879,13 C7.1625697,13 7.46666667,12.7226667 7.46666667,12.3809524 L7.46666667,9.9047619 C7.46666667,9.56304762 7.1625697,9.28571429 6.78787879,9.28571429 L0.678787879,9.28571429 Z M0.678787879,4.64285714 C0.30409697,4.64285714 0,4.92019048 0,5.26190476 L0,7.73809524 C0,8.07980952 0.30409697,8.35714286 0.678787879,8.35714286 L6.78787879,8.35714286 C7.1625697,8.35714286 7.46666667,8.07980952 7.46666667,7.73809524 L7.46666667,5.26190476 C7.46666667,4.92019048 7.1625697,4.64285714 6.78787879,4.64285714 L0.678787879,4.64285714 Z M8.56969697,0 L6.53333333,1.7244898 L8.56969697,3.44897959 L8.56969697,2.29931973 L11.9636364,2.29931973 C12.3471515,2.29931973 12.6424242,2.54937075 12.6424242,2.87414966 L12.6424242,10.3469388 C12.6424242,10.6717177 12.3471515,10.9217687 11.9636364,10.9217687 L7.89090909,10.9217687 C7.51621818,10.9171701 7.20804848,11.1712449 7.20261818,11.488551 C7.19718788,11.8058571 7.49653333,12.0668299 7.87190303,12.0714286 C7.87801212,12.0714286 7.8848,12.0714286 7.89090909,12.0714286 L11.9636364,12.0714286 C13.0802424,12.0714286 14,11.292534 14,10.3469388 L14,2.87414966 C14,1.92855442 13.0802424,1.14965986 11.9636364,1.14965986 L8.56969697,1.14965986 L8.56969697,0 Z M0.678787879,0 C0.30409697,0 0,0.277333333 0,0.619047619 L0,3.0952381 C0,3.43695238 0.30409697,3.71428571 0.678787879,3.71428571 L6.78787879,3.71428571 C7.1625697,3.71428571 7.46666667,3.43695238 7.46666667,3.0952381 L7.46666667,0.619047619 C7.46666667,0.277333333 7.1625697,0 6.78787879,0 L0.678787879,0 Z" id="Reorder"></path>
                </g>
            </g>
        </g>
    </g>
</svg>

<?xml version="1.0" encoding="utf-8"?>
<!-- Generator: Adobe Illustrator 20.1.0, SVG Export Plug-In . SVG Version: 6.00 Build 0)  -->
<svg version="1.1" id="Layer_1" xmlns="http://www.w3.org/2000/svg" xmlns:xlink="http://www.w3.org/1999/xlink" x="0px" y="0px"
	 viewBox="0 0 14 13" style="enable-background:new 0 0 14 13;" xml:space="preserve">
<style type="text/css">
	.st0{fill:#4D5969;}
</style>
<title>HDL/Icon/Standard/depricate</title>
<desc>Created with Sketch.</desc>
<g id="Colors">
	<g id="Main-Icons" transform="translate(-623.000000, -1206.000000)">
		<g id="Depricate" transform="translate(602.000000, 1189.000000)">
			<g id="HDL_x2F_Icon_x2F_Standard_x2F_reorder" transform="translate(21.000000, 17.000000)">
				<path id="Reorder" class="st0" d="M1.9,12.1h3.7v-1.9H1.9V12.1z M0.7,9.3C0.3,9.3,0,9.6,0,9.9v2.5C0,12.7,0.3,13,0.7,13h6.1
					c0.4,0,0.7-0.3,0.7-0.6V9.9c0-0.3-0.3-0.6-0.7-0.6H0.7z M0.7,4.6C0.3,4.6,0,4.9,0,5.3v2.5c0,0.3,0.3,0.6,0.7,0.6h6.1
					c0.4,0,0.7-0.3,0.7-0.6V5.3c0-0.3-0.3-0.6-0.7-0.6H0.7z M8.6,0l-2,1.7l2,1.7V2.3H12c0.4,0,0.7,0.3,0.7,0.6v7.5
					c0,0.3-0.3,0.6-0.7,0.6H7.9c-0.4,0-0.7,0.2-0.7,0.6c0,0.3,0.3,0.6,0.7,0.6c0,0,0,0,0,0H12c1.1,0,2-0.8,2-1.7V2.9
					c0-0.9-0.9-1.7-2-1.7H8.6V0z M0.7,0C0.3,0,0,0.3,0,0.6v2.5c0,0.3,0.3,0.6,0.7,0.6h6.1c0.4,0,0.7-0.3,0.7-0.6V0.6
					C7.5,0.3,7.2,0,6.8,0H0.7z"/>
			</g>
		</g>
	</g>
</g>
</svg>
